usr/share/icons/biglinux-icons-material/scalable/apps/wine-winefile.svg

<?xml version="1.0" encoding="UTF-8" standalone="no"?>
<svg
   width="24"
   height="24"
   viewBox="0 0 6.349875 6.349875"
   version="1.1"
   id="svg42563"
   sodipodi:docname="wine-winefile.svg"
   xml:space="preserve"
   inkscape:version="1.3 (0e150ed6c4, 2023-07-21)"
   xmlns:inkscape="http://www.inkscape.org/namespaces/inkscape"
   xmlns:sodipodi="http://sodipodi.sourceforge.net/DTD/sodipodi-0.dtd"
   xmlns:xlink="http://www.w3.org/1999/xlink"
   xmlns="http://www.w3.org/2000/svg"
   xmlns:svg="http://www.w3.org/2000/svg"><defs
     id="defs42567"><linearGradient
       id="paint0_linear_16_2"
       x1="23"
       y1="0.999999"
       x2="1"
       y2="12"
       gradientUnits="userSpaceOnUse"><stop
         stop-color="#E3C880"
         id="stop1669" /><stop
         offset="1"
         stop-color="#6F5C38"
         id="stop1671" /></linearGradient><linearGradient
       id="paint1_linear_16_2"
       x1="23"
       y1="5.4"
       x2="1.42949"
       y2="23.5115"
       gradientUnits="userSpaceOnUse"><stop
         stop-color="#FFE795"
         id="stop1674" /><stop
         offset="1"
         stop-color="#7A653E"
         id="stop1676" /></linearGradient><linearGradient
       id="paint5_linear_207_185"
       x1="15"
       y1="5.5"
       x2="5.5"
       y2="19.5"
       gradientUnits="userSpaceOnUse"
       gradientTransform="scale(0.26457812)"><stop
         stop-color="#FFE795"
         id="stop18" /><stop
         offset="1"
         stop-color="#7A653E"
         id="stop19" /></linearGradient><linearGradient
       id="paint3_linear_207_185"
       x1="23"
       y1="9"
       x2="1.01236"
       y2="9.52141"
       gradientUnits="userSpaceOnUse"
       gradientTransform="scale(0.26457812)"><stop
         stop-opacity="0.5"
         id="stop14" /><stop
         offset="1"
         id="stop15" /></linearGradient><linearGradient
       id="paint2_linear_207_185"
       x1="12"
       y1="3"
       x2="11.5"
       y2="8"
       gradientUnits="userSpaceOnUse"
       gradientTransform="scale(0.26457812)"><stop
         stop-color="#DDDDDD"
         id="stop12" /><stop
         offset="1"
         stop-color="#CCCCCC"
         stop-opacity="0"
         id="stop13" /></linearGradient><linearGradient
       id="paint1_linear_207_185"
       x1="21"
       y1="4"
       x2="3"
       y2="4"
       gradientUnits="userSpaceOnUse"
       gradientTransform="scale(0.26457812)"><stop
         stop-opacity="0.5"
         id="stop9" /><stop
         offset="0.890123"
         id="stop10" /><stop
         offset="1"
         stop-opacity="0"
         id="stop11" /></linearGradient><linearGradient
       inkscape:collect="always"
       xlink:href="#paint0_linear_16_2"
       id="linearGradient1"
       gradientUnits="userSpaceOnUse"
       x1="23"
       y1="0.999999"
       x2="1"
       y2="12"
       gradientTransform="scale(0.26457812)" /><linearGradient
       inkscape:collect="always"
       xlink:href="#paint1_linear_16_2"
       id="linearGradient2"
       gradientUnits="userSpaceOnUse"
       x1="23"
       y1="5.4"
       x2="1.42949"
       y2="23.5115"
       gradientTransform="scale(0.26457812)" /></defs><sodipodi:namedview
     id="namedview42565"
     pagecolor="#ffffff"
     bordercolor="#000000"
     borderopacity="0.25"
     inkscape:showpageshadow="2"
     inkscape:pageopacity="0.0"
     inkscape:pagecheckerboard="0"
     inkscape:deskcolor="#d1d1d1"
     showgrid="false"
     inkscape:zoom="9.3691649"
     inkscape:cx="13.661837"
     inkscape:cy="36.235887"
     inkscape:window-width="2560"
     inkscape:window-height="998"
     inkscape:window-x="0"
     inkscape:window-y="0"
     inkscape:window-maximized="1"
     inkscape:current-layer="svg42563" /><rect
     opacity="0.8125"
     x="0.26457876"
     y="0.26457813"
     width="5.8207188"
     height="5.8207188"
     rx="1.7462156"
     fill="url(#paint0_linear_207_185)"
     id="rect1"
     style="fill:url(#linearGradient1);stroke-width:0.264578" /><rect
     opacity="0.125"
     x="0.79373449"
     y="0.59530079"
     width="4.7624063"
     height="4.7624063"
     rx="1.1641438"
     fill="url(#paint1_linear_207_185)"
     fill-opacity="0.875"
     id="rect2"
     style="fill:url(#paint1_linear_207_185);stroke-width:0.264578" /><rect
     x="0.85987943"
     y="0.8598789"
     width="4.6301169"
     height="4.6301169"
     rx="1.0979992"
     fill="#cccccc"
     stroke="url(#paint2_linear_207_185)"
     stroke-width="0.132289"
     id="rect3"
     style="stroke:url(#paint2_linear_207_185)" /><path
     opacity="0.125"
     d="m 0.264578,1.9864023 c 0,-0.4395093 0.3562916,-0.7958008 0.7958008,-0.7958008 h 1.106643 c 0.2842945,0 0.559932,0.097878 0.7805372,0.2771774 v 0 c 0.2206317,0.1792993 0.4962427,0.2771773 0.7805584,0.2771773 h 1.5613813 c 0.4395172,0 0.7957981,0.3562915 0.7957981,0.7958007 v 1.560204 c 0,0.9644137 -0.7818019,1.7462156 -1.7462156,1.7462156 H 2.0107937 c -0.9644084,0 -1.7462157,-0.7818019 -1.7462157,-1.7462156 z"
     fill="url(#paint3_linear_207_185)"
     fill-opacity="0.875"
     id="path3"
     style="fill:url(#paint3_linear_207_185);stroke-width:0.264578" /><path
     d="m 0.264578,2.2245226 c 0,-0.4395093 0.3562916,-0.7958008 0.7958008,-0.7958008 h 1.106643 c 0.2842945,0 0.559932,0.097878 0.7805372,0.2771774 v 0 c 0.2206317,0.1792993 0.4962427,0.2771773 0.7805584,0.2771773 h 1.5613813 c 0.4395172,0 0.7957981,0.3562915 0.7957981,0.795814 v 1.5601907 c 0,0.9644137 -0.7818019,1.7462156 -1.7462156,1.7462156 H 2.0107937 c -0.9644084,0 -1.7462157,-0.7818019 -1.7462157,-1.7462156 z"
     fill="url(#paint4_linear_207_185)"
     id="path4"
     style="opacity:0.875;fill:url(#linearGradient2);stroke-width:0.264578" /><path
     d="M 5.98608,2.7788905 V 4.3390812 C 5.98608,5.2487007 5.2487007,5.98608 4.3390812,5.98608 H 2.0107937 C 1.1011821,5.98608 0.363795,5.2487007 0.363795,4.3390812 V 2.2245226 c 0,-0.3847125 0.3118714,-0.696584 0.6965838,-0.696584 h 1.106643 c 0.2615037,0 0.5150331,0.090031 0.7179645,0.2549555 0.2383055,0.1936738 0.5360352,0.2993992 0.8431311,0.2993992 h 1.5613813 c 0.3846966,0 0.6965813,0.3118715 0.6965813,0.6965972 z"
     stroke="url(#paint5_linear_207_185)"
     stroke-opacity="0.375"
     stroke-width="0.198434"
     stroke-linejoin="round"
     id="path5"
     style="opacity:0.875;fill:none;stroke:url(#paint5_linear_207_185)" /><path
     d="M 2.0909569,3.6368382 2.0900456,2.8626966 2.9580502,2.7332933 V 3.6368382 Z M 3.1024899,2.710511 4.2598293,2.5255189 V 3.6368382 H 3.1024899 Z M 4.2598293,3.7954028 V 4.906722 L 3.1024899,4.7281091 V 3.7954028 Z M 2.9580502,4.707605 2.0909569,4.5772904 V 3.7954028 h 0.8670933 z"
     fill="#ffffff"
     id="path42709"
     style="stroke-width:0.455645" /></svg>

<svg xmlns="http://www.w3.org/2000/svg" xmlns:xlink="http://www.w3.org/1999/xlink" xml:space="preserve" width="24" height="24" viewBox="0 0 6.35 6.35"><defs><linearGradient id="a" x1="23" x2="1" y1="1" y2="12" gradientUnits="userSpaceOnUse"><stop stop-color="#E3C880"/><stop offset="1" stop-color="#6F5C38"/></linearGradient><linearGradient id="b" x1="23" x2="1.429" y1="5.4" y2="23.512" gradientUnits="userSpaceOnUse"><stop stop-color="#FFE795"/><stop offset="1" stop-color="#7A653E"/></linearGradient><linearGradient id="h" x1="15" x2="5.5" y1="5.5" y2="19.5" gradientTransform="scale(.26458)" gradientUnits="userSpaceOnUse"><stop stop-color="#FFE795"/><stop offset="1" stop-color="#7A653E"/></linearGradient><linearGradient id="f" x1="23" x2="1.012" y1="9" y2="9.521" gradientTransform="scale(.26458)" gradientUnits="userSpaceOnUse"><stop stop-opacity=".5"/><stop offset="1"/></linearGradient><linearGradient id="e" x1="12" x2="11.5" y1="3" y2="8" gradientTransform="scale(.26458)" gradientUnits="userSpaceOnUse"><stop stop-color="#DDD"/><stop offset="1" stop-color="#CCC" stop-opacity="0"/></linearGradient><linearGradient id="d" x1="21" x2="3" y1="4" y2="4" gradientTransform="scale(.26458)" gradientUnits="userSpaceOnUse"><stop stop-opacity=".5"/><stop offset=".89"/><stop offset="1" stop-opacity="0"/></linearGradient><linearGradient xlink:href="#a" id="c" x1="23" x2="1" y1="1" y2="12" gradientTransform="scale(.26458)" gradientUnits="userSpaceOnUse"/><linearGradient xlink:href="#b" id="g" x1="23" x2="1.429" y1="5.4" y2="23.512" gradientTransform="scale(.26458)" gradientUnits="userSpaceOnUse"/></defs><rect width="5.821" height="5.821" x=".265" y=".265" fill="url(#paint0_linear_207_185)" opacity=".813" rx="1.746" style="fill:url(#c);stroke-width:.264578"/><rect width="4.762" height="4.762" x=".794" y=".595" fill="url(#d)" fill-opacity=".875" opacity=".125" rx="1.164" style="fill:url(#d);stroke-width:.264578"/><rect width="4.63" height="4.63" x=".86" y=".86" fill="#ccc" stroke="url(#e)" stroke-width=".132" rx="1.098" style="stroke:url(#e)"/><path fill="url(#f)" fill-opacity=".875" d="M.265 1.986c0-.44.356-.795.795-.795h1.107c.284 0 .56.097.78.277.221.18.497.277.781.277H5.29c.44 0 .796.356.796.796V4.1c0 .964-.782 1.746-1.746 1.746H2.011A1.746 1.746 0 0 1 .265 4.101z" opacity=".125" style="fill:url(#f);stroke-width:.264578"/><path fill="url(#paint4_linear_207_185)" d="M.265 2.225c0-.44.356-.796.795-.796h1.107c.284 0 .56.098.78.277.221.18.497.277.781.277H5.29c.44 0 .796.356.796.796v1.56c0 .964-.782 1.746-1.746 1.746H2.011A1.746 1.746 0 0 1 .265 4.34z" style="opacity:.875;fill:url(#g);stroke-width:.264578"/><path stroke="url(#h)" stroke-linejoin="round" stroke-opacity=".375" stroke-width=".198" d="M5.986 2.779v1.56c0 .91-.737 1.647-1.647 1.647H2.011C1.1 5.986.364 5.25.364 4.34V2.225c0-.385.312-.697.696-.697h1.107c.262 0 .515.09.718.255.238.194.536.3.843.3H5.29c.385 0 .697.311.697.696z" style="opacity:.875;fill:none;stroke:url(#h)"/><path fill="#fff" d="m2.091 3.637-.001-.774.868-.13v.904Zm1.011-.926 1.158-.185v1.11H3.102ZM4.26 3.795v1.112l-1.158-.179v-.933Zm-1.302.913-.867-.13v-.783h.867z" style="stroke-width:.455645"/></svg>
